X:1
T:Title
%%score { ( 1 3 ) | ( 2 4 ) }
L:1/8
Q:1/4=100
M:4/4
K:F
V:1 treble nm="Grand Piano"
V:3 treble 
V:2 bass 
V:4 bass 
V:1
 A2 G2 F2 [CE]2 | [B,D]4 [DF]4 | A2 c2 [Fd]2 [Fd]2 | [Fc]6 z2 | %4
w: Robert~Harkness * * *||||
 [CA]2 [CG]2[K:bass] [F,CF]2 [F,CE]2 | D4[K:treble] [A,CF]4 | [=B,FA]2 [B,FG]2 [B,Fd]2 [B,FG]2 | %7
w: |||
 [CEG]6 z2 | [C_EG]2 [CEG]2 [CEG]2 [CEA]2 | [DB]4 [DB]4 | [^CA]2 [CE]2 [DF]2 [DG]2 | %11
w: ||||
 [^CA]4 [=Cc]4 | [CA]2 [CG]2 [CF]2 [CE]2 | [B,D]4 [DF]4 | [CA]2 [_EA]2 [=EB]2 [CE]2 | %15
w: ||||
 [F,A,CF]6 z2 |] %16
w: |
V:2
 [F,A,C]2 [F,A,C]2 [F,A,C]2 [A,,F,]2 | [B,,F,]4 [B,,B,]4 | [F,C]2 [F,A,F]2 [B,,B,]2 [D,B,]2 | %3
 [F,A,]6 z2 | [F,,F,]2 [A,,E,]2 A,,2 A,,2 | z2 B,2 F,4 | D,2 D,2 G,,2 G,,2 | C,6 z2 | %8
 C,2 C,2 B,,2 A,,2 | [G,,G,]4 [G,,G,]4 | [A,,E,]2 [A,,A,]2 [D,A,]2 [B,,G,]2 | E,4- [G,,E,]4 | %12
 [F,,F,]2 [G,,E,]2 [A,,F,]2 [A,,F,]2 | [B,,F,]4 [B,,B,]4 | [C,F,]2 [C,^F,]2 [C,G,]2 C,2 | %15
 F,,6 z2 |] %16
V:3
 x8 | x8 | x8 | x8 | x4[K:bass] x4 | [F,B,]2 z2[K:treble] z4 | x8 | x8 | x8 | x8 | x8 | x8 | x8 | %13
 x8 | x8 | x8 |] %16
V:4
 x8 | x8 | x8 | x8 | x8 | B,,4 z4 | x8 | x8 | x8 | x8 | x8 | A,,4 z4 | x8 | x8 | x8 | x8 |] %16

